icons/svg/filter-outline.svg

﻿<?xml version="1.0" encoding="utf-8"?>
<!DOCTYPE svg PUBLIC "-//W3C//DTD SVG 1.1//EN" "http://www.w3.org/Graphics/SVG/1.1/DTD/svg11.dtd">
<svg xmlns="http://www.w3.org/2000/svg" xmlns:xlink="http://www.w3.org/1999/xlink" version="1.1" baseProfile="full" width="24" height="24" viewBox="0 0 24.00 24.00" enable-background="new 0 0 24.00 24.00" xml:space="preserve">
	<path fill="#000000" fill-opacity="1" stroke-width="0.2" stroke-linejoin="round" d="M 3,2.00001L 20.9888,2.00001L 21,2.00001L 21,2.01123L 21,4L 20.9207,4L 15,9.92066L 15,22.909L 9,16.909L 9,9.90596L 3.09404,4L 3,4L 3,2.00001 Z M 11,16.0806L 13,18.0806L 13,9L 13.0922,9L 18.0922,4.00001L 5.92247,4.00001L 10.9225,9L 11,9L 11,16.0806 Z "/>
</svg>

<svg xmlns="http://www.w3.org/2000/svg" version="1.1" baseProfile="full" width="24" height="24" viewBox="0 0 24.00 24.00" xml:space="preserve"><path fill="#000" fill-opacity="1" stroke-width=".2" stroke-linejoin="round" d="M3 2h18v2h-.08L15 9.92v12.99l-6-6V9.905L3.094 4H3V2zm8 14.08l2 2V9h.092l5-5H5.922l5 5H11v7.08z"/></svg>
